dist/svg/ioc.svg

<!-- Generated by Trend Micro Style Portal -->
<svg version="1.1" xmlns="http://www.w3.org/2000/svg" width="16" height="16" viewBox="0 0 16 16">
  <title>ioc</title>
  <path fill="rgb(34,34,34)" d="M12.5 9c-0.829 0.003-1.589 0.297-2.184 0.785l0.006-0.005-1.485-0.99c0.103-0.233 0.163-0.504 0.163-0.79 0-0.925-0.631-1.703-1.486-1.926l-0.014-0.003v-2.141c0.869-0.23 1.5-1.010 1.5-1.936 0-1.105-0.895-2-2-2s-2 0.895-2 2c0 0.927 0.631 1.707 1.486 1.933l0.014 0.003v2.141c-0.868 0.222-1.5 0.997-1.5 1.92 0 0.377 0.105 0.729 0.288 1.028l-0.005-0.009-2.273 2.273c-0.288-0.171-0.634-0.271-1.004-0.271-1.101 0-1.994 0.893-1.994 1.994s0.893 1.994 1.994 1.994c1.101 0 1.994-0.893 1.994-1.994 0-0.002 0-0.004-0-0.006v0c-0.002-0.373-0.107-0.722-0.288-1.019l0.005 0.009 2.273-2.273c0.289 0.178 0.638 0.283 1.013 0.283 0.46 0 0.883-0.159 1.217-0.425l-0.004 0.003 1.405 0.937c-0.386 0.554-0.616 1.241-0.616 1.983 0 1.932 1.566 3.498 3.498 3.498s3.498-1.566 3.498-3.498c0-1.932-1.566-3.498-3.498-3.498-0.001 0-0.002 0-0.003 0h0zM12.5 14.5c-1.105 0-2-0.895-2-2s0.895-2 2-2c1.105 0 2 0.895 2 2v0c-0.001 1.104-0.896 1.999-2 2h-0z"></path>
</svg>

<svg width="16" height="16" viewBox="0 0 16 16" fill="rgb(34, 34, 34)" xmlns="http://www.w3.org/2000/svg"><title>IOC</title><path d="M12.5 9C11.671 9.003 10.911 9.297 10.316 9.785L10.322 9.78L8.837 8.79C8.94 8.557 9 8.286 9 8C9 7.075 8.369 6.297 7.514 6.074L7.5 6.071V3.93C8.369 3.7 9 2.92 9 1.994C9 0.889003 8.105 -0.0059967 7 -0.0059967C5.895 -0.0059967 5 0.889003 5 1.994C5 2.921 5.631 3.701 6.486 3.927L6.5 3.93V6.071C5.632 6.293 5 7.068 5 7.991C5 8.368 5.105 8.72 5.288 9.019L5.283 9.01L3.01 11.283C2.722 11.112 2.376 11.012 2.006 11.012C0.905001 11.012 0.012001 11.905 0.012001 13.006C0.012001 14.107 0.905001 15 2.006 15C3.107 15 4 14.107 4 13.006C4 13.004 4 13.002 4 13C3.998 12.627 3.893 12.278 3.712 11.981L3.717 11.99L5.99 9.717C6.279 9.895 6.628 10 7.003 10C7.463 10 7.886 9.841 8.22 9.575L8.216 9.578L9.621 10.515C9.235 11.069 9.005 11.756 9.005 12.498C9.005 14.43 10.571 15.996 12.503 15.996C14.435 15.996 16.001 14.43 16.001 12.498C16.001 10.566 14.435 9 12.503 9C12.502 9 12.501 9 12.5 9ZM12.5 14.5C11.395 14.5 10.5 13.605 10.5 12.5C10.5 11.395 11.395 10.5 12.5 10.5C13.605 10.5 14.5 11.395 14.5 12.5C14.499 13.604 13.604 14.499 12.5 14.5Z" fill="rgb(34, 34, 34)" fill-opacity="1.00"/></svg>
